X: 18933
T: Indian Summer
R: reel
M: 4/4
K: Dminor
DEFG ADDA|BGGB ADD2|DEFG ADD2|EDCD EFGE|
DEFG ADDA|BGGB ADD2|C3D E3F|GECE D4:|
|:d3d d3A|BAGB ADD2|d3d d3A|BAGB A3d|
d3e f3e|dAGB ADD2|C3D E3F|GECE D4:|

